X: 1
T: Hughie and Allan's Reel
C: Kinnon Beaton
%D:_
R: reel
S: Fiddle Hell Online 2022-4-7 handout for Andrea Beaton's workshop
Z: 2022 John Chambers <jc:trillian.mit.edu>
M: 4/4
L: 1/8
K: D
%%continueall
"^A"|: dB |\
AF F/F/F AFEF | DFAd f2df | eB B/B/B bf f/f/f |[1,3 afed B2dB :|[2,4 edef d2 :| df "^B"|: ad d/d/d afef |
ad d/d/d a2fa |[1,3 be e/e/e bafa | be e/e/e bafg :|[2 edBd efdB | AFEF D/D/D Df :|[4 edBd efdB | AFEF D2 |]
